X:168
T: EIN TAEUBCHEN FLOG VOM HIMMELSZELT
N: F0304
O: Europa, Mitteleuropa, Deutschland
R: Jugend - Lied, Belehrung, Moral
M: 2/4
L: 1/8
K: F
G | A2c2 | F2B2 | A2G2 | G2z
B | A2c2 | F2B2 | A2G2 | A3z |
zGA=B | dcz2 |
d2c2 | d2c2 | e4 | f2z2 |
e2dz | c2Bz | c4 | F3

@@@ Tune index: 5599
